src/next/cmd/ar/lc_outlinebullet.svg

<svg height="24" viewBox="0 0 6.3499999 6.3500002" width="24" xmlns="http://www.w3.org/2000/svg" xmlns:xlink="http://www.w3.org/1999/xlink"><linearGradient id="a" gradientUnits="userSpaceOnUse" x1="98.9077" x2="98.9077" y1="46.5466" y2="162.9086"><stop offset="0" stop-color="#99999c"/><stop offset=".5" stop-color="#9c9ca1"/><stop offset="1" stop-color="#cdcdd1"/></linearGradient><linearGradient id="b" gradientUnits="userSpaceOnUse" x1="78.610847" x2="120.3435" y1="88.852417" y2="111.54715"><stop offset="0" stop-color="#fff"/><stop offset="1" stop-color="#ccc"/></linearGradient><linearGradient id="c" gradientUnits="userSpaceOnUse" x1="88.38102" x2="130.48599" y1="1008.9966" y2="1015.6953"><stop offset="0" stop-color="#7b7b7b"/><stop offset="1" stop-color="#797979" stop-opacity="0"/></linearGradient><clipPath id="d"><path d="m41.355614 933.74432h83.943996v117.52168h-83.943996z"/></clipPath><filter id="e" color-interpolation-filters="sRGB" height="1.073732" width="1.13754" x="-.06877" y="-.036866"><feGaussianBlur stdDeviation="1.0557314"/></filter><linearGradient id="f" gradientUnits="userSpaceOnUse" x1="100.83452" x2="116.42799" y1="37.992622" y2="80.92411"><stop offset="0" stop-color="#fff" stop-opacity=".683453"/><stop offset="1" stop-color="#fff" stop-opacity="0"/></linearGradient><linearGradient id="g" gradientTransform="matrix(.58291629 0 0 .66676377 62.177025 -566.68964)" gradientUnits="userSpaceOnUse" x1="63.011921" x2="63.011921" y1="945.89801" y2="1033.1569"><stop offset="0" stop-color="#545454" stop-opacity=".988"/><stop offset="1" stop-color="#ebebeb"/></linearGradient><linearGradient id="h" gradientTransform="matrix(.48045402 0 0 .66178602 128.73476 -578.51587)" gradientUnits="userSpaceOnUse" x1="-60.535713" x2="-60.357143" y1="979.50507" y2="1009.505"><stop offset="0" stop-color="#979797"/><stop offset=".148461" stop-color="#f6f6f6"/><stop offset=".28399727" stop-color="#e2e2e2"/><stop offset=".41198727" stop-color="#dedede"/><stop offset=".41198727" stop-color="#f6f6f6"/><stop offset="1" stop-color="#6b6b6b"/></linearGradient><linearGradient id="i" gradientTransform="matrix(.480454 0 0 .58309338 128.76683 499.76645)" gradientUnits="userSpaceOnUse" x1="-61.078979" x2="-60.6413" y1="-1056.658" y2="-1010.9131"><stop offset="0" stop-color="#777"/><stop offset=".18176934" stop-color="#a8a8a8"/><stop offset=".22864534" stop-color="#cdcdcd"/><stop offset=".34561315" stop-color="#f7f7f7"/><stop offset="1" stop-color="#fff"/></linearGradient><linearGradient id="j"><stop offset="0" stop-color="#06f"/><stop offset="1" stop-color="#80b3ff"/></linearGradient><linearGradient id="k" gradientUnits="userSpaceOnUse" x1="-8.273988" x2="-8.273988" xlink:href="#j" y1="-285.144382" y2="-284.536132"/><linearGradient id="l" gradientUnits="userSpaceOnUse" x1="-8.273988" x2="-8.273988" xlink:href="#j" y1="-283.292302" y2="-282.684052"/><g transform="matrix(-1 0 0 1 6.35 -.000032)"><g fill="#555"><path d="m2.3827483.79378203h3.4380848v.26455037h-3.4380849z"/><path d="m2.3767904 1.5875197h3.4440428v.2645639h-3.4440428z"/><path d="m2.3767902 2.3812608h2.6502929v.2645722h-2.6502929z"/><path d="m2.3827477 3.7041552h3.4380853v.2645948h-3.4380853z"/><path d="m2.3767899 4.4978911h3.4440431v.2646084h-3.4440431z"/><path d="m2.3767899 5.2916339h2.6502932v.2646167h-2.6502932z"/></g><g transform="matrix(1.5125 0 0 1.5125 13.805787 -426.83745)"><circle cx="-8.315476" cy="-283.12827" fill="none" r=".132292" stroke="url(#l)" stroke-linecap="round" stroke-linejoin="round" stroke-width=".529167" transform="scale(1 -1)"/><circle cx="-8.315476" cy="283.12827" fill="#bfd9ff" r=".132292"/></g><g transform="matrix(1.5125 0 0 1.5125 13.777038 -426.72834)"><circle cx="-8.315476" cy="-284.98035" fill="none" r=".132292" stroke="url(#k)" stroke-linecap="round" stroke-linejoin="round" stroke-width=".529167" transform="scale(1 -1)"/><circle cx="-8.315476" cy="284.98035" fill="#bfd9ff" r=".132292"/></g></g><g transform="matrix(.04547526 0 0 .04547526 -3.174955 .529164)"><path d="m69.8172 46.546616h58.181v81.453444h-58.181z" fill="url(#a)"/><path d="m75.6353 52.3647h46.5448v69.81722h-46.5448z" fill="url(#b)"/><path clip-path="url(#d)" d="m92.81509 1029.6319c1.071428 1.4286 10.71429 15.3572 11.78571 13.5715 1.07143-1.7858 26.42857-25.3572 25-26.7858-1.42857-1.4285-33.928567-41.78567-33.928567-41.78567z" fill="url(#c)" fill-rule="evenodd" filter="url(#e)" opacity=".68" transform="matrix(.69309305 0 0 .69309305 41.153912 -600.6251)"/><path d="m75.6353 52.3647v47.28063c14.171661-16.500095 33.53848-23.157342 46.54439-25.022283v-22.257813z" fill="url(#f)" fill-rule="evenodd"/><path d="m87.2715 64.0009h23.2724v46.5448h-23.2724z" fill="url(#g)"/><path d="m89.925598 66.798828h17.686732v41.164682h-17.686732z" fill="#535353"/><path d="m93.0896 69.819h11.6362v17.4543h-11.6362z" fill="url(#h)"/><path d="m93.0896-116.3638h11.6362v29.0905h-11.6362z" fill="url(#i)" transform="scale(1 -1)"/></g></svg>

<?xml version="1.0" encoding="UTF-8" standalone="no"?>
<svg
   xmlns:dc="http://purl.org/dc/elements/1.1/"
   xmlns:cc="http://creativecommons.org/ns#"
   xmlns:rdf="http://www.w3.org/1999/02/22-rdf-syntax-ns#"
   xmlns:svg="http://www.w3.org/2000/svg"
   xmlns="http://www.w3.org/2000/svg"
   xmlns:xlink="http://www.w3.org/1999/xlink"
   xmlns:sodipodi="http://sodipodi.sourceforge.net/DTD/sodipodi-0.dtd"
   xmlns:inkscape="http://www.inkscape.org/namespaces/inkscape"
   height="24"
   viewBox="0 0 6.3499999 6.3500002"
   width="24"
   version="1.1"
   id="svg35"
   sodipodi:docname="lc_outlinebullet.svg"
   inkscape:version="0.92.4 (unknown)"
   inkscape:export-filename="/home/rizmut/Dokumen/Rizmut/Github/libreoffice-style-karasa-jaga/build/next/cmd/ar/lc_outlinebullet.png"
   inkscape:export-xdpi="96"
   inkscape:export-ydpi="96">
  <metadata
     id="metadata41">
    <rdf:RDF>
      <cc:Work
         rdf:about="">
        <dc:format>image/svg+xml</dc:format>
        <dc:type
           rdf:resource="http://purl.org/dc/dcmitype/StillImage" />
        <dc:title></dc:title>
      </cc:Work>
    </rdf:RDF>
  </metadata>
  <defs
     id="defs39">
    <linearGradient
       id="a-3"
       gradientUnits="userSpaceOnUse"
       x1="98.9077"
       x2="98.9077"
       y1="46.5466"
       y2="162.9086">
      <stop
         offset="0"
         stop-color="#99999c"
         id="stop2-6" />
      <stop
         offset=".5"
         stop-color="#9c9ca1"
         id="stop4-7" />
      <stop
         offset="1"
         stop-color="#cdcdd1"
         id="stop6" />
    </linearGradient>
    <linearGradient
       id="b-5"
       gradientUnits="userSpaceOnUse"
       x1="78.610847"
       x2="120.3435"
       y1="88.852417"
       y2="111.54715">
      <stop
         offset="0"
         stop-color="#fff"
         id="stop9" />
      <stop
         offset="1"
         stop-color="#ccc"
         id="stop11" />
    </linearGradient>
    <linearGradient
       id="c-3"
       gradientUnits="userSpaceOnUse"
       x1="88.38102"
       x2="130.48599"
       y1="1008.9966"
       y2="1015.6953">
      <stop
         offset="0"
         stop-color="#7b7b7b"
         id="stop14" />
      <stop
         offset="1"
         stop-color="#797979"
         stop-opacity="0"
         id="stop16" />
    </linearGradient>
    <clipPath
       id="d">
      <path
         inkscape:connector-curvature="0"
         d="M 41.355614,933.74432 H 125.29961 V 1051.266 H 41.355614 Z"
         id="path19-5" />
    </clipPath>
    <filter
       style="color-interpolation-filters:sRGB"
       id="e"
       height="1.073732"
       width="1.13754"
       x="-0.068769999"
       y="-0.036866002">
      <feGaussianBlur
         stdDeviation="1.0557314"
         id="feGaussianBlur22" />
    </filter>
    <linearGradient
       id="f"
       gradientUnits="userSpaceOnUse"
       x1="100.83452"
       x2="116.42799"
       y1="37.992622"
       y2="80.92411">
      <stop
         offset="0"
         stop-color="#fff"
         stop-opacity=".683453"
         id="stop25" />
      <stop
         offset="1"
         stop-color="#fff"
         stop-opacity="0"
         id="stop27" />
    </linearGradient>
    <linearGradient
       id="g"
       gradientTransform="matrix(0.58291629,0,0,0.66676377,62.177025,-566.68964)"
       gradientUnits="userSpaceOnUse"
       x1="63.011921"
       x2="63.011921"
       y1="945.89801"
       y2="1033.1569">
      <stop
         offset="0"
         stop-color="#545454"
         stop-opacity=".988"
         id="stop30" />
      <stop
         offset="1"
         stop-color="#ebebeb"
         id="stop32" />
    </linearGradient>
    <linearGradient
       id="h"
       gradientTransform="matrix(0.48045402,0,0,0.66178602,128.73476,-578.51587)"
       gradientUnits="userSpaceOnUse"
       x1="-60.535713"
       x2="-60.357143"
       y1="979.50507"
       y2="1009.505">
      <stop
         offset="0"
         stop-color="#979797"
         id="stop35" />
      <stop
         offset=".148461"
         stop-color="#f6f6f6"
         id="stop37" />
      <stop
         offset=".28399727"
         stop-color="#e2e2e2"
         id="stop39" />
      <stop
         offset=".41198727"
         stop-color="#dedede"
         id="stop41" />
      <stop
         offset=".41198727"
         stop-color="#f6f6f6"
         id="stop43" />
      <stop
         offset="1"
         stop-color="#6b6b6b"
         id="stop45" />
    </linearGradient>
    <linearGradient
       id="i"
       gradientTransform="matrix(0.480454,0,0,0.58309338,128.76683,499.76645)"
       gradientUnits="userSpaceOnUse"
       x1="-61.078979"
       x2="-60.6413"
       y1="-1056.658"
       y2="-1010.9131">
      <stop
         offset="0"
         stop-color="#777"
         id="stop48" />
      <stop
         offset=".18176934"
         stop-color="#a8a8a8"
         id="stop50" />
      <stop
         offset=".22864534"
         stop-color="#cdcdcd"
         id="stop52" />
      <stop
         offset=".34561315"
         stop-color="#f7f7f7"
         id="stop54" />
      <stop
         offset="1"
         stop-color="#fff"
         id="stop56" />
    </linearGradient>
  </defs>
  <sodipodi:namedview
     pagecolor="#ffffff"
     bordercolor="#666666"
     borderopacity="1"
     objecttolerance="10"
     gridtolerance="10"
     guidetolerance="10"
     inkscape:pageopacity="0"
     inkscape:pageshadow="2"
     inkscape:window-width="1366"
     inkscape:window-height="706"
     id="namedview37"
     showgrid="true"
     inkscape:zoom="9.8333333"
     inkscape:cx="15.400642"
     inkscape:cy="10.52152"
     inkscape:window-x="0"
     inkscape:window-y="0"
     inkscape:window-maximized="1"
     inkscape:current-layer="svg35">
    <inkscape:grid
       type="xygrid"
       id="grid848" />
  </sodipodi:namedview>
  <linearGradient
     id="a">
    <stop
       offset="0"
       stop-color="#06f"
       id="stop2" />
    <stop
       offset="1"
       stop-color="#80b3ff"
       id="stop4" />
  </linearGradient>
  <linearGradient
     id="b"
     gradientUnits="userSpaceOnUse"
     x1="-8.273988"
     x2="-8.273988"
     xlink:href="#a"
     y1="-285.144382"
     y2="-284.536132" />
  <linearGradient
     id="c"
     gradientUnits="userSpaceOnUse"
     x1="-8.273988"
     x2="-8.273988"
     xlink:href="#a"
     y1="-283.292302"
     y2="-282.684052" />
  <g
     id="g863"
     transform="matrix(-1,0,0,1,6.3499998,-3.202375e-5)">
    <g
       id="g21"
       style="fill:#555555">
      <path
         id="path9"
         d="M 2.3827483,0.79378203 H 5.8208331 V 1.0583324 H 2.3827482 Z"
         inkscape:connector-curvature="0" />
      <path
         id="path11"
         d="M 2.3767904,1.5875197 H 5.8208332 V 1.8520836 H 2.3767904 Z"
         inkscape:connector-curvature="0" />
      <path
         id="path13"
         d="M 2.3767902,2.3812608 H 5.0270831 V 2.645833 H 2.3767902 Z"
         inkscape:connector-curvature="0" />
      <path
         id="path15"
         d="M 2.3827477,3.7041552 H 5.820833 V 3.96875 H 2.3827477 Z"
         inkscape:connector-curvature="0" />
      <path
         id="path17"
         d="M 2.3767899,4.4978911 H 5.820833 V 4.7624995 H 2.3767899 Z"
         inkscape:connector-curvature="0" />
      <path
         id="path19"
         d="M 2.3767899,5.2916339 H 5.0270831 V 5.5562506 H 2.3767899 Z"
         inkscape:connector-curvature="0" />
    </g>
    <g
       id="g27"
       transform="matrix(1.5125,0,0,1.5125,13.805787,-426.83745)">
      <circle
         id="circle23"
         transform="scale(1,-1)"
         r="0.132292"
         cy="-283.12827"
         cx="-8.3154764"
         style="fill:none;stroke:url(#c);stroke-width:0.529167;stroke-linecap:round;stroke-linejoin:round" />
      <circle
         id="circle25"
         r="0.132292"
         cy="283.12827"
         cx="-8.3154764"
         style="fill:#bfd9ff" />
    </g>
    <g
       id="g33"
       transform="matrix(1.5125,0,0,1.5125,13.777038,-426.72834)">
      <circle
         id="circle29"
         transform="scale(1,-1)"
         r="0.132292"
         cy="-284.98035"
         cx="-8.3154764"
         style="fill:none;stroke:url(#b);stroke-width:0.529167;stroke-linecap:round;stroke-linejoin:round" />
      <circle
         id="circle31"
         r="0.132292"
         cy="284.98035"
         cx="-8.3154764"
         style="fill:#bfd9ff" />
    </g>
  </g>
  <g
     transform="matrix(0.04547526,0,0,0.04547526,-3.1749553,0.5291639)"
     id="g112">
    <path
       d="m 69.8172,46.546616 h 58.181 v 81.453444 h -58.181 z"
       id="path96"
       style="fill:url(#a-3)"
       inkscape:connector-curvature="0" />
    <path
       d="m 75.6353,52.3647 h 46.5448 v 69.81722 H 75.6353 Z"
       id="path98"
       style="fill:url(#b-5)"
       inkscape:connector-curvature="0" />
    <path
       clip-path="url(#d)"
       d="m 92.81509,1029.6319 c 1.071428,1.4286 10.71429,15.3572 11.78571,13.5715 1.07143,-1.7858 26.42857,-25.3572 25,-26.7858 -1.42857,-1.4285 -33.928567,-41.78567 -33.928567,-41.78567 z"
       transform="matrix(0.69309305,0,0,0.69309305,41.153912,-600.6251)"
       id="path100"
       style="opacity:0.68000028;fill:url(#c-3);fill-rule:evenodd;filter:url(#e)"
       inkscape:connector-curvature="0" />
    <path
       d="M 75.6353,52.3647 V 99.64533 C 89.806961,83.145235 109.17378,76.487988 122.17969,74.623047 V 52.365234 Z"
       id="path102"
       style="fill:url(#f);fill-rule:evenodd"
       inkscape:connector-curvature="0" />
    <path
       d="m 87.2715,64.0009 h 23.2724 v 46.5448 H 87.2715 Z"
       id="path104"
       style="fill:url(#g)"
       inkscape:connector-curvature="0" />
    <path
       d="M 89.925598,66.798828 H 107.61233 V 107.96351 H 89.925598 Z"
       id="path106"
       inkscape:connector-curvature="0"
       style="fill:#535353" />
    <path
       d="m 93.0896,69.819 h 11.6362 V 87.2733 H 93.0896 Z"
       id="path108"
       style="fill:url(#h)"
       inkscape:connector-curvature="0" />
    <path
       d="m 93.0896,-116.3638 h 11.6362 v 29.0905 H 93.0896 Z"
       transform="scale(1,-1)"
       id="path110"
       style="fill:url(#i)"
       inkscape:connector-curvature="0" />
  </g>
</svg>
